X:1
T:I’ll Sing My Temptations Away
T:I’ll Sing My Temptations Away
T:A. F. Myers
T:Mary Irene McLean, 1894
T:Public Domain Courtesy of the Cyber Hymnal™
T:Public Domain Courtesy of the Cyber Hymnal™
C:A. F. Myers
Z:Public Domain
Z:Courtesy of the Cyber Hymnal™
%%score ( 1 2 ) ( 3 4 )
L:1/8
Q:1/4=102
M:6/8
K:Ab
V:1 treble 
V:2 treble 
V:3 bass 
V:4 bass 
V:1
 [CE] | [CE][CE][CE] [DE][DF][DG] | [CA]3- [CA]2 [CA] | [DB][DB][DB] [DB][DF][DG] | %4
w: 1.~I’ll|sing my temp- ta- tions a-|way, * For|tho’ they be art- ful and|
w: 2.~When|world- ly al- lure- ments are|strong, * To|Christ in my weak- ness I’ll|
w: 3.~When|tem- pests with- in and with-|out * Sug-|gest that my faith is all|
w: 4.~And|when all temp- ta- tions are|o’er, * A|song of re- demp- tion I’ll|
 [CA]3- [CA]2 [CE] | [CE][CE][CE] [DE][DF][DG] | [CA]3- [CA]2 [CA] | [=DB][DB][DB] [DB][Dc][DB] | %8
w: strong, * I’ll|sing of One strong- er than|they, * And|sing till they flee from my|
w: flee. * And|find in His pre- sence a|song, * And|sing the temp- tat- ions from|
w: wrong, * I’ll|sing till grim sha- dows of|doubt * Are|lost in the sun- light of|
w: sing, * And|swell on the heav- en- ly|shore * The|prais- es of Je- sus my|
 E3- E2 ||"^Refrain" E | c3- c2 [CA] | E3- E2 [EA] | [EB][EB][EB] [DG][DG][DG] | A3- [CA]2 [CE] | %14
w: song. *||||||
w: me. *|I’ll|sing, * ~|~ * ~|I’ll sing ~ ~ ~ ~|~ ~ ~|
w: song. *||||||
w: king. *||||||
 c3- c2 [CA] | E3- E2 [EA] | [Ec]>[DB][CA] [DB][DF][DG] | A3- [CA]2 |] %18
w: ||||
w: ~ * ~|~ * ~|~ ~ I’ll sing, ~ ~|~ I’ll|
w: ||||
w: ||||
V:2
 x | x6 | x6 | x6 | x6 | x6 | x6 | x6 | E3- E2 || E | EEE EE x | CCC CC x | x6 | C2 D x3 | %14
w: ||||||||||||||
w: ||||||||||* * * ~ *|* * * ~ *|||
 EEE EE x | CCC CC x | x6 | C2 D x2 |] %18
w: ||||
w: ||||
V:3
 [A,,A,] | [A,,A,][A,,A,][A,,A,] [E,G,][E,B,][E,B,] | [A,,A,]3- [A,,A,]2 [E,A,] | %3
w: ~|~ ~ ~ ~ ~ ~|~ * ~|
 [E,G,][E,G,][E,G,] [E,G,][E,B,]E, | [A,,E,]3- [A,,E,]2 [A,,A,] | %5
w: ~ ~ ~ ~ ~ ~|~ * ~|
 [A,,A,][A,,A,][A,,A,] [E,G,][E,A,][E,B,] | A,3 A,2 [F,A,] | %7
w: ~ ~ ~ ~ ~ ~|~ ~ ~|
 [B,,F,][B,,F,][B,,F,] [B,,F,][B,,A,][B,,A,] | [E,G,]3- [E,G,]2 || [E,G,] | %10
w: ~ ~ ~ ~ ~ ~|~ *|I’ll|
 [A,,A,][A,,A,][A,,A,] [A,,A,][A,,A,][A,,A,] | [A,,A,][A,,A,][A,,A,] [A,,A,][A,,A,][C,A,] | %12
w: sing of my Sav- ior, I’ll|sing of my Sav- ior, I’ll|
 [E,G,][E,G,][E,G,] E,E,E, | E,2 F, [A,,E,]2 [A,,A,] | %14
w: sing of my Sav- ior all|day, all day. I’ll|
 [A,,A,][A,,A,][A,,A,] [A,,A,][A,,A,][A,,A,] | [A,,A,][A,,A,][A,,A,] [A,,A,][A,,A,][C,A,] | %16
w: * sing my temp- ta- tions,|I’ll sing my temp- ta- tions,|
 [E,A,]>[E,G,][E,A,] [E,G,][E,B,]E, | E,2 F, [A,,E,]2 |] %18
w: I’ll sing my temp- ta- tions|a- way, a-|
V:4
 x | x6 | x6 | x5 E, | x6 | x6 | A,3 A,2 x | x6 | x5 || x | x6 | x6 | x3 E,E,E, | A,,3- x3 | x6 | %15
 x6 | x5 E, | A,,3- x2 |] %18

